css/images/icon-starred-inactive.svg

<svg fill="none" height="24" viewBox="0 0 24 24" width="24" xmlns="http://www.w3.org/2000/svg"><path d="m8.85001 17.825 3.14999-1.9 3.15 1.925-.825-3.6 2.775-2.4-3.65-.325-1.45-3.40005-1.45 3.37505-3.64999.325 2.775 2.425zm3.14999.45-4.14999 2.5c-.18333.1166-.375.1666-.575.15-.2-.0167-.375-.0834-.525-.2-.15-.1167-.26666-.2625-.34999-.4375-.08334-.175-.1-.3709-.05-.5875l1.09999-4.725-3.67499-3.175c-.16667-.15-.27084-.3209-.3125-.5125-.04167-.1917-.02917-.3792.0375-.5625.06666-.1834.16666-.3334.3-.45.13333-.1167.31666-.1917.55-.225l4.84999-.42505 1.87499-4.45c.0833-.2.2125-.35.3875-.45s.3542-.15.5375-.15.3625.05.5375.15.3042.25.3875.45l1.875 4.45 4.85.42505c.2333.0333.4167.1083.55.225.1333.1166.2333.2666.3.45.0667.1833.0792.3708.0375.5625-.0417.1916-.1458.3625-.3125.5125l-3.675 3.175 1.1 4.725c.05.2166.0333.4125-.05.5875s-.2.3208-.35.4375c-.15.1166-.325.1833-.525.2-.2.0166-.3917-.0334-.575-.15z" fill="#9c9c9c"/></svg>

<svg width="24" height="24" viewBox="0 0 24 24" fill="none" xmlns="http://www.w3.org/2000/svg">
<path d="M8.85001 17.825L12 15.925L15.15 17.85L14.325 14.25L17.1 11.85L13.45 11.525L12 8.12495L10.55 11.5L6.90001 11.825L9.67501 14.25L8.85001 17.825ZM12 18.275L7.85001 20.775C7.66668 20.8916 7.47501 20.9416 7.27501 20.925C7.07501 20.9083 6.90001 20.8416 6.75001 20.725C6.60001 20.6083 6.48335 20.4625 6.40002 20.2875C6.31668 20.1125 6.30002 19.9166 6.35002 19.7L7.45001 14.975L3.77502 11.8C3.60835 11.65 3.50418 11.4791 3.46252 11.2875C3.42085 11.0958 3.43335 10.9083 3.50002 10.725C3.56668 10.5416 3.66668 10.3916 3.80002 10.275C3.93335 10.1583 4.11668 10.0833 4.35002 10.05L9.20001 9.62495L11.075 5.17495C11.1583 4.97495 11.2875 4.82495 11.4625 4.72495C11.6375 4.62495 11.8167 4.57495 12 4.57495C12.1833 4.57495 12.3625 4.62495 12.5375 4.72495C12.7125 4.82495 12.8417 4.97495 12.925 5.17495L14.8 9.62495L19.65 10.05C19.8833 10.0833 20.0667 10.1583 20.2 10.275C20.3333 10.3916 20.4333 10.5416 20.5 10.725C20.5667 10.9083 20.5792 11.0958 20.5375 11.2875C20.4958 11.4791 20.3917 11.65 20.225 11.8L16.55 14.975L17.65 19.7C17.7 19.9166 17.6833 20.1125 17.6 20.2875C17.5167 20.4625 17.4 20.6083 17.25 20.725C17.1 20.8416 16.925 20.9083 16.725 20.925C16.525 20.9416 16.3333 20.8916 16.15 20.775L12 18.275Z" fill="#9C9C9C"/>
</svg>
